X:10
T: Vincent Harrison's
S: Brian Conway
Z: B.Black
N: a/k/a "Tommy Peoples'"
R: jig
M: 6/8
L: 1/8
K: G
dBG GDB, | G,3 G,B,D | EcB A2 G | FED cBA |
BdB G2 F | EGE C2 E | DGB cAF | AGF G3 :|
GBd g2 f | ecB c2 B | Adf a2 g | faf def |
g2 B Ggf | ecA E3 | DGB cAF | AGF G3 :|
BAB g2 f | e2 c cAE | FEF a2 g | f3 def |
gdB GBd | ecA E3 | DGB cAF | AGF G3 :|
